!!!COM:	Martini, Johannes
!!!CDT:	~1440///-~1497//
!!!OTL:	Beati omnes
!!!AGN:	Motet
!!!SCT:	Mar2007
!!!SCA:	Mar2007
!!!voices:	2
**kern	**kern
*staff2	*staff1
*Ivox	*Ivox
*I"Tenor	*I"Superius
*I'T	*I'S
*>[A,B,C,D,E,F,G,H,I]	*>[A,B,C,D,E,F,G,H,I]
*>A	*>A
*clefGv2	*clefG2
*k[]	*k[]
*M2/1	*M2/1
*met(C)	*met(C)
=1-	=1-
!!section: Qui ambulant
!!!OMD: Qui ambulant
!!LO:TX:Z=8:t=Choir 1
1c	1cc
2e\	2cc\
2e\	2cc\
=2	=2
1e	1cc
2e\	2cc\
2d\	2b\
=3	=3
2c\	2a/
2.d\	2.b\
4c\	4a/
2A/	[2a/
=4	=4
1B	2a/]
.	2g#i/
1Al	1al
=5||	=5||
*>B	*>B
!!section: Labores manuum
!!!OMD: Labores manuum
!!LO:TX:Z=8:t=Choir 2
1A	1a
1B	1g
=6	=6
1c	1a
1d	1b
=7	=7
2c\	2a/
2d\	2b\
2e\	2cc\
2e\	2cc\
=8	=8
1c	1cc
2d\	2b\
2c\	2a/
=9	=9
2.B\	2.g/
4c\	4a/
2d\	2b\
2c\	[2cc\
=10	=10
1d	2cc\]
.	2b\
1c	1cc
=11	=11
1r	1r
1e	1cc
=12	=12
2e\	2cc\
2e\	2cc\
1e	1cc
=13	=13
2d\	2b\
2c\	2a/
2d\	2b\
2e\	[2cc\
=14	=14
1c	4cc\]
.	4b\
.	2a/
2B\	2g/
2A/	[2a/
=15	=15
1B	2a/]
.	2g#i/
1Al	1al
=16||	=16||
*>C	*>C
!!section: Uxor tua
!!!OMD: Uxor tua
!!LO:TX:Z=8:t=Choir 1
1c	1a
2e\	2cc\
2e\	2cc\
=17	=17
1e	1cc
2e\	2cc\
2e\	2cc\
=18	=18
1e	1cc
2d\	2b\
2e\	2cc\
=19	=19
1f	1dd
1c	1cc
=20	=20
1r	1r
2e\	2cc\
2e\	2cc\
=21	=21
2e\	2cc\
2e\	2cc\
1e	1cc
=22	=22
1e	2cc\
.	1b
2d\	.
2c\	[2a/
=23	=23
1B	2a/]
.	2g#i/
1Al	1al
=24||	=24||
*>D	*>D
!!LO:TX:Z=8:t=Choir 2
!!section: Filii tui
!!!OMD: Filii tui
1A	1a
2B\	2g/
2c\	2a/
=25	=25
1d	1b
2c\	2a/
2d\	2b\
=26	=26
2e\	2cc\
2e\	2cc\
1e	1cc
=27	=27
1d	1b
2e\	2cc\
2f\	[2dd\
=28	=28
2.d\	4dd\]
.	4cc\
.	4b\
4c\	4a/
2B\	2g/
2c\	[2cc\
=29	=29
1d	2cc\]
.	2b\
1c	1cc
=30	=30
1r	1r
2e\	2cc\
2e\	2cc\
=31	=31
2e\	2cc\
2e\	2cc\
1e	1cc
=32	=32
1d	2.b\
.	4a/
2d\	2b\
[2e\	[2cc\
=33	=33
2e\]	2cc\]
4d\	4b\
4c\	4a/
2B\	2g/
2A/	[2a/
=34	=34
1B	2a/]
.	2g#i/
1Al	1al
=35||	=35||
*>E	*>E
!!LO:TX:Z=8:t=Choir 1
!!section: Ecce sic
!!!OMD: Ecce sic
2c\	2cc\
2c\	2cc\
1e	1cc
=36	=36
1e	1cc
2e\	2cc\
2c\	2cc\
=37	=37
2d\	2b\
2e\	2cc\
1f	1dd
=38	=38
1c	1cc
1r	1r
=39	=39
1e	1cc
1e	2cc\
.	[2b\
=40	=40
2d\	2b\]
2c\	1a
1B	.
.	2g#i/
=41	=41
0Al	0al
=42||	=42||
*>F	*>F
!!section: Benedicat tibi
!!!OMD: Benedicat tibi
!!LO:TX:Z=8:t=Choir 2
1A	1a
2B\	2g/
2c\	2a/
=43	=43
1d	1b
1c	1a
=44	=44
2e\	2cc\
2e\	2cc\
1d	1b
=45	=45
2.c\	2.a/
4d\	4b\
2e\	2cc\
2d\	[2dd\
=46	=46
1e	2dd\]
.	2cc#i\
1d	1dd
=47	=47
1r	1r
1e	1cc
=48	=48
2e\	2cc\
2e\	2cc\
2e\	2cc\
2e\	2cc\
=49	=49
2e\	2cc\
2e\	2cc\
2e\	2cc\
2e\	2cc\
=50	=50
1e	1cc
2r	2r
2e\	2cc\
=51	=51
2c\	2cc\
2c\	2cc\
1d	1b
=52	=52
2c\	2a/
2d\	2b\
2e\	2cc\
4d\	4b\
4c\	4a/
=53	=53
2B\	2g/
2A/	1a
1B	.
.	2g#i/
=54	=54
0Al	0al
=55||	=55||
*>G	*>G
!!section: Et videas filios
!!!OMD: Et videas filios
!!LO:TX:Z=8:t=Choir 1
1c	1a
2e\	2cc\
2e\	2cc\
=56	=56
2e\	2cc\
2e\	2cc\
2e\	2cc\
[2c\	2cc\
=57	=57
2c\]	2a/
2d\	2b\
2e\	2cc\
2d\	[2dd\
=58	=58
2f\	2dd\]
2e\	1cc
1d	.
.	2b\
=59	=59
1c	1cc
1r	1r
=60	=60
2e\	2cc\
2e\	2cc\
1e	1cc
=61	=61
2d\	2b\
2B\	2g/
2c\	2a/
[2d\	[2b\
=62	=62
4d\]	4b\]
4c\	4a/
4B\	4g#i/
4A/	4f#i/
1B	1g#i
=63	=63
0Al	0al
=64||	=64||
*>H	*>H
!!LO:TX:Z=8:t=Choir 2
!!section: Gloria Patri
!!!OMD: Gloria Patri
1A	1a
2B\	2g/
2c\	2a/
=65	=65
1d	1b
2c\	1cc
[2e\	.
=66	=66
2e\]	1b
2d\	.
2c\	1a
2A/	.
=67	=67
2B\	2g/
2c\	1cc
1d	.
.	2b\
=68	=68
1c	1cc
1r	1r
=69	=69
1e	1cc
2e\	2cc\
2e\	2cc\
=70	=70
1e	1cc
1d	2b\
.	[2dd\
=71	=71
2.d\	4dd\]
.	4cc\
.	4b\
4c\	4a/
2B\	2g/
2A/	[2a/
=72	=72
1B	2a/]
.	2g#i/
1Al	1al
=73||	=73||
*>I	*>I
!!LO:TX:Z=8:t=Choir 1
!!section: Sicut erat
!!!OMD: Sicut erat
2c\	2cc\
2c\	2cc\
2e\	2cc\
2e\	2cc\
=74	=74
2e\	2cc\
2e\	2cc\
2e\	2cc\
2e\	2cc\
=75	=75
1e	1cc
1c	1cc
=76	=76
2d\	2b\
2e\	2cc\
1f	1dd
=77	=77
1c	1cc
1r	1r
=78	=78
2e\	2cc\
2e\	2cc\
2e\	2cc\
2e\	2cc\
=79	=79
1e	1cc
1d	1b
=80	=80
2e\	2cc\
2f\	2.dd\
2.d\	.
.	4cc\
.	4b\
4c\	4a/
=81	=81
2B\	2g/
2A/	1a
1B	.
.	2g#i/
=82	=82
0Al	0al
==	==
*-	*-
!!!RDF**kern: l=long note in original notation
!!!RDF**kern: i=editorial accidental
!!!ENC:	Chris Gage 12-04-2013
!!!END:	2014/10/05/
!!!EED:	Jesse Rodin
!!!EEV:	2014/10/13/
!!!ONB:	Translated from MusicXML and edited on 2014/10/13/ by Craig Sapp
!!muse2ps: C^@{COM}^i2I150v85,150Q16
